components/icon/svg/24/av_volume-mute.svg

<?xml version="1.0" encoding="UTF-8"?>
<svg width="24px" height="24px" viewBox="0 0 24 24" version="1.1" xmlns="http://www.w3.org/2000/svg" xmlns:xlink="http://www.w3.org/1999/xlink">
    <!-- Generator: Sketch 64 (93537) - https://sketch.com -->
    <title>ic-db_av_volume-mute_24</title>
    <desc>Created with Sketch.</desc>
    <g id="Symbols" stroke="none" stroke-width="1" fill="none" fill-rule="evenodd">
        <g id="24dp-Icon/AV/Volume-Mute" fill="#282D37">
            <path d="M11.0281679,5 C11.5924284,5 12,5.4688 12,6 L12,18 C12,18.5625 11.5924284,19 11.0281679,19 C10.8400811,19 10.5892986,18.9688 10.4639074,18.8438 L6.20060589,15.9688 L4.47652676,15.9688 C3.09722334,15.9688 2,14.875 2,13.4688 L2,10.5 C2,9.0938 3.09722334,8 4.47652676,8 L6.20060589,8 L10.4639074,5.1562 C10.6206966,5.0625 10.8400811,5 11.0281679,5 Z M9.99374047,7.875 L7.04704679,9.8125 C6.8902576,9.9375 6.67087312,10 6.48278629,10 L4.47652676,10 C4.19434636,10 4.00625953,10.2188 4.00625953,10.4688 L4.00625953,13.4688 C4.00625953,13.75 4.19434636,13.9688 4.47652676,13.9688 L6.48278629,13.9688 C6.67087312,13.9688 6.8902576,14.0625 7.04704679,14.1562 L9.99374047,16.125 L9.99374047,7.875 Z" id="🎨-Color"></path>
        </g>
    </g>
</svg>

<svg width="24" height="24" xmlns="http://www.w3.org/2000/svg"><path d="M11.028 5c.564 0 .972.469.972 1v12c0 .563-.408 1-.972 1-.188 0-.439-.031-.564-.156L6.2 15.969H4.477c-1.38 0-2.477-1.094-2.477-2.5V10.5C2 9.094 3.097 8 4.477 8H6.2l4.263-2.844c.157-.093.376-.156.564-.156zM9.994 7.875L7.047 9.813a.941.941 0 01-.564.187H4.477a.461.461 0 00-.47.469v3c0 .281.187.5.47.5h2.006c.188 0 .407.094.564.187l2.947 1.969v-8.25z" fill="#282D37" fill-rule="evenodd"/></svg>
